Papirus-nordic/32x32/places/folder-red-locked.svg

<svg xmlns="http://www.w3.org/2000/svg" width="32" height="32" version="1"><rect width="25" height="16" x="3" y="12" rx="1.25" ry="1.25" opacity=".2"/><path d="M3 21.75c0 .692.558 1.25 1.25 1.25h22.5c.692 0 1.25-.558 1.25-1.25V8.25C28 7.558 27.442 7 26.75 7H14v-.75C14 5.558 13.443 5 12.75 5h-8.5C3.558 5 3 5.558 3 6.25" fill="#ae4f58"/><rect width="25" height="16" x="3" y="10" rx="1.25" ry="1.25" opacity=".2"/><rect width="21" height="10" x="5" y="9" rx="1.25" ry="1.25" fill="#e4e4e4"/><rect width="25" height="16" x="3" y="11" rx="1.25" ry="1.25" fill="#bf616a"/><path d="M4.25 5C3.558 5 3 5.558 3 6.25v1C3 6.558 3.558 6 4.25 6h8.5c.693 0 1.25.558 1.25 1.25V8h12.75c.692 0 1.25.557 1.25 1.25v-1C28 7.558 27.442 7 26.75 7H14v-.75C14 5.558 13.443 5 12.75 5h-8.5z" opacity=".1" fill="#fff"/><path d="M16 14c-1.66 0-3 1.3-3 3v1h-.5c-.277 0-.5.223-.5.5v5c0 .277.223.5.5.5h7c.277 0 .5-.223.5-.5v-5c0-.277-.223-.5-.5-.5H19v-1c0-1.7-1.34-3-3-3zm0 1a2 2 0 0 1 2 2v1h-4v-1a2 2 0 0 1 2-2z" fill="#974a4d"/><path d="M12 23.5v.5h.5a.499.499 0 0 1-.5-.5zM20 23.5c0 .277-.223.5-.5.5h.5z" fill="#3f51b5"/></svg>

<svg xmlns="http://www.w3.org/2000/svg" width="32" height="32" version="1">
 <rect style="opacity:0.2" width="25" height="16" x="3" y="12" rx="1.25" ry="1.25"/>
 <path style="fill:#ae4f58" d="M 3,21.75 C 3,22.442 3.5575,23 4.25,23 H 26.75 C 27.442,23 28,22.442 28,21.75 V 8.25 C 28,7.5575 27.442,7 26.75,7 H 14 V 6.25 C 14,5.5575 13.443,5 12.75,5 H 4.25 C 3.5575,5 3,5.5575 3,6.25"/>
 <rect style="opacity:0.2" width="25" height="16" x="3" y="10" rx="1.25" ry="1.25"/>
 <rect style="fill:#e4e4e4" width="21" height="10" x="5" y="9" rx="1.25" ry="1.25"/>
 <rect style="fill:#bf616a" width="25" height="16" x="3" y="11" rx="1.25" ry="1.25"/>
 <path style="opacity:0.1;fill:#ffffff" d="M 4.25 5 C 3.5575 5 3 5.5575 3 6.25 L 3 7.25 C 3 6.5575 3.5575 6 4.25 6 L 12.75 6 C 13.443 6 14 6.5575 14 7.25 L 14 8 L 26.75 8 C 27.442 8 28 8.5575 28 9.25 L 28 8.25 C 28 7.5575 27.442 7 26.75 7 L 14 7 L 14 6.25 C 14 5.5575 13.443 5 12.75 5 L 4.25 5 z"/>
 <path style="fill:#974a4d" d="M 16 14 C 14.34 14 13 15.3 13 17 L 13 18 L 12.5 18 C 12.223 18 12 18.223 12 18.5 L 12 23.5 C 12 23.777 12.223 24 12.5 24 L 19.5 24 C 19.777 24 20 23.777 20 23.5 L 20 18.5 C 20 18.223 19.777 18 19.5 18 L 19 18 L 19 17 C 19 15.3 17.66 14 16 14 z M 16 15 C 17.11 15 18 15.9 18 17 L 18 18 L 14 18 L 14 17 C 14 15.9 14.89 15 16 15 z"/>
 <path style="fill:#3f51b5" d="M 12,23.5 V 24 H 12.5 C 12.223,24 12,23.777 12,23.5 Z"/>
 <path style="fill:#3f51b5" d="M 20,23.5 C 20,23.777 19.777,24 19.5,24 H 20 Z"/>
</svg>
